X:1
T:Title
%%score ( 1 2 ) { 3 | 4 }
L:1/8
Q:1/4=107
M:4/4
K:Eb
V:1 treble nm="Grand Piano, Soprano"
V:2 treble 
V:3 bass nm="Choir Pad, Sonora, Ada Rose Gibbs"
V:4 bass 
V:1
 GABc [EB]2 E2 | [DF]2 [DA]2 GF [B,E]2 | GABc [EB]2 [DA][EG] | [DF]2 B=A [DB]4 | %4
w: By~Ada~Rose~Gibbs~(1864\-1905) * * * * *||||
 [Fc]2 BA [EB]2 AG | [DA]2 GF GA [EB]2 | [EA]2 [Ec]2 BGEF | [EG]2 [DF]2 E4 | B3 F B2 F2 | %9
w: |||||
 [FB]2 [Fc]2 [FB]2 [FB]2 | [FA]3 [FA] [EG]2 [EG]2 | [Ec]3 [Ec] [EB]4 | E3 E [DF]2 [DF]2 | %13
w: ||||
 [EG]3 [EG] [EA]2 [E=A]2 | [EB]3 [Ec] d2 e2 | [DG]2 [DF]2 E4- | E4 z4 |] %17
w: ||||
V:2
 E2 E2 z4 | z4 E2 z2 | E2 E2 z4 | z2 E2 z4 | z2 F2 z2 E2 | z2 D2 E2 z2 | z4 E2 z2 | x8 | x8 | x8 | %10
 x8 | x8 | x8 | x8 | z4 E4 | x8 | x8 |] %17
V:3
 B,2 B,2 B,2 G,2 | B,2 B,2 B,2 G,2 | B,2 B,2 B,2 B,2 | B,2[K:treble] C2 D4 | D2 D2 E2[K:bass] B,2 | %5
 B,2 B,2 B,2 B,2 | C2 A,2 B,2 C2 | B,2 A,2 G,4 | B,3 F, B,2 F,2 | D2 E2 D2 D2 | %10
 B,3[K:bass] B, B,2 B,2 | A,3 A, G,4 | C3 B, B,2 B,2 | B,3 B, A,2 E,2 | G,3 G, G,4 | B,2 A,2 G,4- | %16
 G,4 z4 |] %17
V:4
 E,F,G,A, G,2 E,2 | B,,2 B,,2 E,2 E,2 | E,F,G,A, G,2 F,E, | F,2 F,2 B,4 | A,2 A,2 G,2 E,2 | %5
 F,2 B,,2 E,F, G,2 | A,2 z2 G,2 A,2 | z2 B,,2 E,4 | z8 | B,2 =A,2 B,2 B,,2 | D,3 D, E,2 E,2 | %11
 A,,3 A,, E,4 | A,3 G, F,2 B,,2 | E,3 _D, C,2 =B,,2 | B,,3 B,, B,,4 | B,,2 B,,2 E,4- | E,4 z4 |] %17

